public/library/solscan-text-light.svg

<svg width="717" height="116" viewBox="0 0 717 116" fill="none" xmlns="http://www.w3.org/2000/svg">
<g clip-path="url(#clip0_15320_6350)">
<mask id="mask0_15320_6350" style="mask-type:luminance" maskUnits="userSpaceOnUse" x="0" y="0" width="717" height="116">
<path d="M717 0H0V116H717V0Z" fill="white"/>
</mask>
<g mask="url(#mask0_15320_6350)">
<path d="M156.155 35.0836C168.91 35.1996 178.977 45.5186 178.797 58.2828C178.616 71.0517 168.219 81.1245 155.515 80.8419C142.954 80.5635 133.104 70.4671 133.137 57.907C133.17 45.1474 143.431 34.9676 156.155 35.0836Z" fill="#C74AE3"/>
<path d="M185.823 106.806C165.896 122.869 130.29 117.121 111.847 95.5035C91.5594 71.7243 93.9285 36.0486 117.196 14.9233C140.181 -5.94213 175.74 -4.79146 197.418 17.5216C218.461 39.1804 219.393 75.1159 199.699 95.3969C195.101 90.5757 190.498 85.7457 185.674 80.6881C193.14 70.2397 195.454 58.2826 190.99 45.4442C184.324 26.2769 163.212 16.1621 143.958 22.6951C124.932 29.1491 114.517 49.6526 120.459 68.9543C126.466 88.4695 146.842 99.5541 166.397 93.5409C170.29 92.3439 172.45 93.0443 174.967 95.9443C178.295 99.7861 182.146 103.173 185.823 106.806ZM0 35.1716C0 30.541 0.885286 26.1887 2.65123 22.1289C4.41716 18.0691 6.82271 14.5149 9.86794 11.4712C12.9131 8.42747 16.4589 6.01939 20.5145 4.25162C24.5701 2.48384 28.9131 1.59762 33.5435 1.59762H84.8718V24.0081H33.5435C31.9815 24.0081 30.5262 24.2957 29.1727 24.8665C27.8192 25.4419 26.6373 26.2351 25.6223 27.2467C24.6073 28.2628 23.8147 29.446 23.2446 30.8008C22.6699 32.1558 22.3871 33.6126 22.3871 35.1762C22.3871 36.7398 22.6699 38.2108 23.2446 39.5888C23.8147 40.9668 24.6119 42.1638 25.6223 43.18C26.6373 44.196 27.8192 44.9896 29.1727 45.5602C30.5262 46.1356 31.9815 46.4186 33.5435 46.4186H55.9306C60.5609 46.4186 64.9131 47.2908 68.9965 49.0354C73.0803 50.78 76.6401 53.1742 79.6848 56.218C82.7302 59.2616 85.1173 62.8296 86.8598 66.9175C88.6025 71.0051 89.4744 75.3667 89.4744 79.9973C89.4744 84.6321 88.6025 88.9799 86.8598 93.0399C85.1173 97.0999 82.7251 100.654 79.6848 103.698C76.6444 106.741 73.0803 109.15 68.9965 110.922C64.9131 112.694 60.5564 113.576 55.9306 113.576H6.23871V91.1651H55.9306C57.4926 91.1651 58.9433 90.8773 60.3014 90.3067C61.6548 89.7361 62.8368 88.9379 63.8518 87.9265C64.8668 86.9151 65.6594 85.7277 66.2295 84.3725C66.7996 83.0175 67.0869 81.5611 67.0869 79.9973C67.0869 78.4333 66.7996 76.9769 66.2295 75.6219C65.6548 74.2669 64.8622 73.0837 63.8518 72.0677C62.8368 71.0515 61.6548 70.2581 60.3014 69.6875C58.9479 69.1167 57.4926 68.8291 55.9306 68.8291H33.5435C28.9131 68.8291 24.5701 67.9429 20.5145 66.175C16.4589 64.4072 12.9085 61.9992 9.86794 58.9508C6.82735 55.907 4.41716 52.339 2.65123 48.256C0.885286 44.1682 0 39.8068 0 35.1716ZM306.734 113.576H228.412V1.59298H250.799V91.1651H306.731L306.734 113.576ZM309.544 35.1716C309.544 30.541 310.43 26.1887 312.195 22.1289C313.961 18.0691 316.366 14.5149 319.412 11.4712C322.457 8.42747 326.003 6.01939 330.059 4.24698C334.115 2.4792 338.457 1.59298 343.088 1.59298H394.414V24.0035H343.088C341.526 24.0035 340.069 24.2911 338.716 24.8619C337.363 25.4371 336.181 26.2305 335.166 27.2421C334.151 28.2581 333.359 29.4414 332.789 30.7962C332.214 32.1511 331.931 33.608 331.931 35.1716C331.931 36.7352 332.214 38.206 332.789 39.584C333.359 40.9622 334.155 42.1592 335.166 43.1754C336.181 44.1914 337.363 44.9848 338.716 45.5556C340.069 46.1308 341.526 46.414 343.088 46.414H365.475C370.104 46.414 374.458 47.2862 378.541 49.0308C382.624 50.7754 386.184 53.1696 389.228 56.2132C392.274 59.257 394.661 62.825 396.404 66.9128C398.146 71.0005 399.018 75.3623 399.018 79.9929C399.018 84.6277 398.146 88.9757 396.404 93.0349C394.661 97.0949 392.269 100.649 389.228 103.693C386.189 106.737 382.624 109.144 378.541 110.917C374.458 112.69 370.101 113.571 365.475 113.571H315.783V91.1607H365.475C367.036 91.1607 368.492 90.8729 369.845 90.3023C371.198 89.7317 372.38 88.9335 373.395 87.9223C374.41 86.9057 375.202 85.7225 375.772 84.3683C376.342 83.0133 376.631 81.5559 376.631 79.9929C376.631 78.4291 376.342 76.9719 375.772 75.6174C375.199 74.2625 374.406 73.0793 373.395 72.0631C372.38 71.0469 371.198 70.2535 369.845 69.6829C368.492 69.1121 367.036 68.8245 365.475 68.8245H343.088C338.457 68.8245 334.115 67.9383 330.059 66.1704C326.003 64.4026 322.451 61.9944 319.412 58.9462C316.372 55.9024 313.961 52.3344 312.195 48.2466C310.424 44.1682 309.544 39.8068 309.544 35.1716ZM503.005 102.097C497.804 106.574 491.978 110.012 485.53 112.406C479.083 114.801 472.4 115.998 465.484 115.998C460.182 115.998 455.069 115.306 450.157 113.929C445.242 112.55 440.641 110.597 436.348 108.073C432.057 105.549 428.145 102.514 424.607 98.9741C421.07 95.4339 418.04 91.5183 415.518 87.2211C412.998 82.9247 411.045 78.3173 409.67 73.3989C408.293 68.4811 407.602 63.3632 407.602 58.0552C407.602 52.7472 408.293 47.6156 409.67 42.6696C411.045 37.7236 412.998 33.1022 415.518 28.8103C418.04 24.5139 421.067 20.5979 424.607 17.0576C428.145 13.5174 432.057 10.4876 436.348 7.95883C440.641 5.43478 445.242 3.4814 450.157 2.10336C455.069 0.725327 460.182 0.0339905 465.484 0.0339905C472.4 0.0339905 479.083 1.21715 485.53 3.58812C491.978 5.95909 497.804 9.40651 503.005 13.935L491.149 33.4596C487.871 29.9193 483.995 27.2003 479.522 25.2979C475.049 23.4003 470.369 22.4491 465.484 22.4491C460.542 22.4491 455.913 23.3863 451.598 25.2609C447.278 27.1353 443.509 29.6734 440.288 32.8748C437.063 36.0764 434.517 39.8532 432.645 44.196C430.772 48.5436 429.836 53.1648 429.836 58.0552C429.836 62.9504 430.772 67.5439 432.645 71.8403C434.517 76.1365 437.063 79.8949 440.288 83.1241C443.514 86.3541 447.281 88.9009 451.598 90.7757C455.913 92.6499 460.542 93.5873 465.484 93.5873C470.369 93.5873 475.049 92.6361 479.522 90.7381C483.995 88.8407 487.871 86.1169 491.149 82.5767L503.005 102.097ZM604.181 113.576H581.794V91.1651H537.017V113.576H514.703V46.4186C514.703 40.2244 515.871 34.406 518.211 28.9635C520.553 23.5255 523.737 18.7743 527.769 14.7098C531.797 10.65 536.535 7.44851 541.966 5.10534C547.398 2.76222 553.21 1.59298 559.403 1.59298C565.59 1.59298 571.403 2.76222 576.839 5.10534C582.272 7.44851 587.017 10.65 591.078 14.7098C595.134 18.7697 598.333 23.5209 600.673 28.9635C603.014 34.406 604.181 40.2244 604.181 46.4186V113.576ZM581.794 68.8291V46.4186C581.794 43.347 581.209 40.4424 580.038 37.7096C578.869 34.9768 577.27 32.5964 575.24 30.5642C573.21 28.5319 570.833 26.9311 568.103 25.7619C565.373 24.5927 562.472 24.0035 559.403 24.0035C556.335 24.0035 553.432 24.5881 550.704 25.7619C547.972 26.9311 545.595 28.5319 543.565 30.5642C541.535 32.5964 539.936 34.9768 538.767 37.7096C537.599 40.4424 537.011 43.347 537.011 46.4186V68.8291H581.794ZM713.086 113.576H689.136L645.999 39.8578V113.576H623.612V1.59298H647.56L690.699 75.3899V1.59298H713.086V113.576Z" fill="#07E7C7"/>
</g>
</g>
<defs>
<clipPath id="clip0_15320_6350">
<rect width="717" height="116" fill="white"/>
</clipPath>
</defs>
</svg>

<svg xmlns="http://www.w3.org/2000/svg" width="717" height="116" fill="none" viewBox="0 0 717 116"><g clip-path="url(#a)"><mask id="b" width="717" height="116" x="0" y="0" maskUnits="userSpaceOnUse" style="mask-type:luminance"><path fill="#fff" d="M717 0H0v116h717z"/></mask><g mask="url(#b)"><path fill="#c74ae3" d="M156.155 35.084c12.755.116 22.822 10.435 22.642 23.199-.181 12.769-10.578 22.841-23.282 22.559-12.561-.278-22.411-10.375-22.378-22.935.033-12.76 10.294-22.94 23.018-22.823"/><path fill="#07e7c7" d="M185.823 106.806c-19.927 16.063-55.533 10.315-73.976-11.302-20.288-23.78-17.918-59.455 5.349-80.58 22.985-20.866 58.544-19.715 80.222 2.598 21.043 21.658 21.975 57.594 2.281 77.875l-14.025-14.709c7.466-10.448 9.78-22.405 5.316-35.244-6.666-19.167-27.778-29.282-47.032-22.749-19.026 6.454-29.441 26.958-23.499 46.26 6.007 19.515 26.383 30.6 45.938 24.586 3.893-1.197 6.053-.497 8.57 2.403 3.328 3.842 7.179 7.229 10.856 10.862M0 35.172c0-4.631.885-8.983 2.651-13.043q2.65-6.091 7.217-10.658c3.045-3.044 6.59-5.452 10.647-7.22Q26.598 1.6 33.544 1.599h51.328v22.41H33.544q-2.342.002-4.371.858a11.2 11.2 0 0 0-3.55 2.38 11 11 0 0 0-2.378 3.555c-.575 1.355-.858 2.812-.858 4.375s.283 3.035.858 4.413a11 11 0 0 0 2.377 3.591 11 11 0 0 0 3.55 2.38c1.354.576 2.81.859 4.372.859H55.93c4.63 0 8.982.872 13.066 2.616 4.083 1.745 7.643 4.14 10.688 7.183s5.432 6.612 7.175 10.7q2.614 6.132 2.614 13.08 0 6.952-2.614 13.042-2.615 6.091-7.175 10.658-4.561 4.565-10.689 7.224c-4.083 1.772-8.44 2.654-13.065 2.654H6.239v-22.41H55.93c1.562 0 3.012-.289 4.37-.86a11.1 11.1 0 0 0 3.55-2.38 11 11 0 0 0 2.379-3.553c.57-1.356.857-2.812.857-4.376q0-2.344-.858-4.375a11.2 11.2 0 0 0-2.377-3.554 11 11 0 0 0-3.55-2.38q-2.03-.858-4.371-.859H33.544q-6.945-.001-13.03-2.654T9.869 58.951c-3.04-3.044-5.45-6.612-7.217-10.695Q.001 42.123 0 35.172m306.734 78.404h-78.322V1.593h22.387v89.572h55.932zm2.81-78.404c0-4.631.886-8.983 2.651-13.043q2.649-6.091 7.217-10.658c3.045-3.044 6.591-5.452 10.647-7.224q6.083-2.653 13.029-2.654h51.326v22.41h-51.326q-2.343.001-4.372.859a11.2 11.2 0 0 0-3.55 2.38 11 11 0 0 0-2.377 3.554c-.575 1.355-.858 2.812-.858 4.376 0 1.563.283 3.034.858 4.412a11 11 0 0 0 2.377 3.591 11 11 0 0 0 3.55 2.38c1.353.576 2.81.859 4.372.859h22.387q6.942 0 13.066 2.617 6.123 2.617 10.687 7.182c3.046 3.044 5.433 6.612 7.176 10.7q2.613 6.133 2.614 13.08 0 6.953-2.614 13.042-2.615 6.091-7.176 10.658-4.56 4.565-10.687 7.224c-4.083 1.773-8.44 2.654-13.066 2.654h-49.692v-22.41h49.692q2.341-.001 4.37-.859a11.1 11.1 0 0 0 3.55-2.38 11 11 0 0 0 2.377-3.554c.57-1.355.859-2.812.859-4.375s-.289-3.021-.859-4.376a11.1 11.1 0 0 0-2.377-3.554 11 11 0 0 0-3.55-2.38q-2.029-.857-4.37-.859h-22.387q-6.946-.001-13.029-2.654c-4.056-1.767-7.608-4.176-10.647-7.224-3.04-3.044-5.451-6.612-7.217-10.7-1.771-4.078-2.651-8.44-2.651-13.074m193.461 66.925a57 57 0 0 1-17.475 10.309 57.1 57.1 0 0 1-20.046 3.592c-5.302 0-10.415-.692-15.327-2.069a58 58 0 0 1-13.809-5.856 58.4 58.4 0 0 1-11.741-9.099 58.4 58.4 0 0 1-9.089-11.753A58.1 58.1 0 0 1 409.67 73.4c-1.377-4.918-2.068-10.036-2.068-15.344s.691-10.44 2.068-15.385c1.375-4.946 3.328-9.568 5.848-13.86a58.3 58.3 0 0 1 9.089-11.752 58.6 58.6 0 0 1 11.741-9.1 58 58 0 0 1 13.809-5.855C455.069.725 460.182.034 465.484.034q10.375-.001 20.046 3.554a55.6 55.6 0 0 1 17.475 10.347L491.149 33.46q-4.917-5.31-11.627-8.162a35.6 35.6 0 0 0-14.038-2.849q-7.413 0-13.886 2.812-6.48 2.811-11.31 7.614c-3.225 3.201-5.771 6.978-7.643 11.321q-2.81 6.523-2.809 13.86 0 7.34 2.809 13.784 2.807 6.442 7.643 11.284c3.226 3.23 6.993 5.777 11.31 7.652q6.473 2.811 13.886 2.811 7.328 0 14.038-2.849a33.5 33.5 0 0 0 11.627-8.161zm101.176 11.479h-22.387v-22.41h-44.777v22.41h-22.314V46.419q-.001-9.292 3.508-17.455 3.511-8.157 9.558-14.254c4.028-4.06 8.766-7.261 14.197-9.605q8.148-3.513 17.437-3.512 9.281 0 17.436 3.512 8.149 3.515 14.239 9.605 6.084 6.09 9.595 14.253 3.51 8.164 3.508 17.456zm-22.387-44.747V46.42q0-4.61-1.756-8.71-1.753-4.097-4.798-7.145-3.043-3.048-7.137-4.802-4.096-1.757-8.7-1.759c-3.068 0-5.971.585-8.699 1.759q-4.096 1.754-7.139 4.802-3.045 3.047-4.798 7.146t-1.756 8.709v22.41zm131.292 44.747h-23.95l-43.137-73.718v73.718h-22.387V1.593h23.948l43.139 73.797V1.593h22.387z"/></g></g><defs><clipPath id="a"><path fill="#fff" d="M0 0h717v116H0z"/></clipPath></defs></svg>
